source/img/icons/star.svg

<svg width="17" height="17" viewBox="0 0 17 17" fill="none" xmlns="http://www.w3.org/2000/svg">
<path d="M17.3638 6.73081L11.7107 5.94036L9.18188 1L6.65315 5.93565L1 6.72612L5.09094 10.5702L4.11458 15.9999L9.17217 13.4356L14.2297 15.9999L13.2533 10.5702L17.3638 6.73081ZM13.4291 14.9271L9.18188 12.7769L4.93475 14.9271L5.74515 10.3726L2.32789 7.14487L7.07298 6.47675L9.19654 2.33154L11.3201 6.47675L16.0701 7.14487L12.6529 10.3726L13.4291 14.9271Z" fill="#999999" stroke="#999999" stroke-width="0.5"/>
</svg>

<svg width="17" height="17" fill="none" xmlns="http://www.w3.org/2000/svg"><path d="M17.364 6.73l-5.653-.79L9.18 1 6.654 5.936 1 6.726l4.09 3.844L4.116 16l5.057-2.564L14.23 16l-.977-5.43 4.11-3.84zm-3.935 8.197l-4.247-2.15-4.247 2.15.81-4.554-3.417-3.228 4.745-.668 2.124-4.145 2.123 4.145 4.75.668-3.417 3.228.776 4.554z" fill="#999" stroke="#999" stroke-width=".5"/></svg>
